packages/kaspersky-hexa-ui-icons/src/iconsSVGs/24/ExpandAll.svg

<svg width="24" height="24" viewBox="0 0 24 24" fill="none" xmlns="http://www.w3.org/2000/svg">
<path d="M15.2929 6.70711L13 4.41421V9C13 9.55229 12.5523 10 12 10C11.4477 10 11 9.55229 11 9V4.41421L8.70711 6.70711C8.31658 7.09763 7.68342 7.09763 7.29289 6.70711C6.90237 6.31658 6.90237 5.68342 7.29289 5.29289L11.2929 1.29289C11.6834 0.902369 12.3166 0.902369 12.7071 1.29289L16.7071 5.29289C17.0976 5.68342 17.0976 6.31658 16.7071 6.70711C16.3166 7.09763 15.6834 7.09763 15.2929 6.70711Z" fill="black"/>
<path d="M5 12C5 12.5523 4.55228 13 4 13C3.44772 13 3 12.5523 3 12C3 11.4477 3.44772 11 4 11C4.55228 11 5 11.4477 5 12Z" fill="black"/>
<path d="M20 13C20.5523 13 21 12.5523 21 12C21 11.4477 20.5523 11 20 11C19.4477 11 19 11.4477 19 12C19 12.5523 19.4477 13 20 13Z" fill="black"/>
<path d="M9 12C9 12.5523 8.55228 13 8 13C7.44772 13 7 12.5523 7 12C7 11.4477 7.44772 11 8 11C8.55228 11 9 11.4477 9 12Z" fill="black"/>
<path d="M12 13C12.5523 13 13 12.5523 13 12C13 11.4477 12.5523 11 12 11C11.4477 11 11 11.4477 11 12C11 12.5523 11.4477 13 12 13Z" fill="black"/>
<path d="M17 12C17 12.5523 16.5523 13 16 13C15.4477 13 15 12.5523 15 12C15 11.4477 15.4477 11 16 11C16.5523 11 17 11.4477 17 12Z" fill="black"/>
<path d="M11 19.5858V15C11 14.4477 11.4477 14 12 14C12.5523 14 13 14.4477 13 15V19.5858L15.2929 17.2929C15.6834 16.9024 16.3166 16.9024 16.7071 17.2929C17.0976 17.6834 17.0976 18.3166 16.7071 18.7071L12.7071 22.7071C12.3166 23.0976 11.6834 23.0976 11.2929 22.7071L7.29289 18.7071C6.90237 18.3166 6.90237 17.6834 7.29289 17.2929C7.68342 16.9024 8.31658 16.9024 8.70711 17.2929L11 19.5858Z" fill="black"/>
</svg>

<svg xmlns="http://www.w3.org/2000/svg" width="24" height="24" fill="none" viewBox="0 0 24 24"><path fill="#000" fill-rule="evenodd" d="M15.2929 6.7071 13 4.4142V9c0 .5523-.4477 1-1 1s-1-.4477-1-1V4.4142L8.7071 6.7071c-.3905.3905-1.0237.3905-1.4142 0s-.3905-1.0237 0-1.4142l4-4c.3905-.3905 1.0237-.3905 1.4142 0l4 4c.3905.3905.3905 1.0237 0 1.4142s-1.0237.3905-1.4142 0M8 13c.5523 0 1-.4477 1-1s-.4477-1-1-1-1 .4477-1 1 .4477 1 1 1m5-1c0 .5523-.4477 1-1 1s-1-.4477-1-1 .4477-1 1-1 1 .4477 1 1m-8 0c0 .5523-.4477 1-1 1s-1-.4477-1-1 .4477-1 1-1 1 .4477 1 1m11 1c.5523 0 1-.4477 1-1s-.4477-1-1-1-1 .4477-1 1 .4477 1 1 1m4 0c.5523 0 1-.4477 1-1s-.4477-1-1-1-1 .4477-1 1 .4477 1 1 1m-9 6.5858V15c0-.5523.4477-1 1-1s1 .4477 1 1v4.5858l2.2929-2.2929c.3905-.3905 1.0237-.3905 1.4142 0s.3905 1.0237 0 1.4142l-4 4c-.3905.3905-1.0237.3905-1.4142 0l-4-4c-.3905-.3905-.3905-1.0237 0-1.4142s1.0237-.3905 1.4142 0z"/></svg>
